frontend/public/svg/arrows/arrow-circle-left.svg

<svg width="155" height="150" viewBox="0 0 155 150" fill="none" xmlns="http://www.w3.org/2000/svg">
<path d="M116.929 72.8472C116.39 72.7973 115.849 72.7448 115.309 72.6909C113.092 72.4737 110.799 72.2499 108.535 72.2203C99.4976 72.1028 86.7062 72.011 74.3356 71.9231C64.753 71.8575 55.7035 71.7917 48.768 71.7162C48.2632 71.6976 47.76 71.647 47.2616 71.5646L46.9237 71.5167L47.3595 71.0442C47.8504 70.5106 48.258 70.0682 48.6826 69.6429C54.6756 63.5394 59.6849 56.5428 63.5316 48.9027L63.6537 48.6689C64.0342 48.007 64.3341 47.3019 64.547 46.5687C64.6185 46.1337 64.5889 45.6882 64.4604 45.2666C64.4223 45.0972 64.3842 44.9279 64.3613 44.7618L64.3146 44.4165L63.9727 44.4822C63.773 44.5171 63.5717 44.5417 63.3695 44.5558C62.8539 44.5442 62.3475 44.6932 61.9203 44.9823C61.4465 45.4291 61.021 45.9245 60.6509 46.4603C60.3644 46.8638 60.0515 47.2481 59.7143 47.6104C56.9547 50.4326 54.1889 53.2496 51.4169 56.0614C47.8561 59.6791 44.3018 63.3038 40.7541 66.9355C39.172 68.4569 37.7455 70.1324 36.4958 71.9369C34.7131 74.7046 34.9862 77.0071 37.4021 79.6351C39.7243 82.1587 42.156 84.8929 44.8365 87.9934C46.788 90.2499 48.7299 92.515 50.6621 94.7885C52.7624 97.2511 54.8708 99.7086 56.9873 102.161C57.7955 103.147 58.7434 104.009 59.801 104.721C60.2039 104.938 60.6564 105.045 61.1137 105.033C61.55 105.061 61.9825 104.935 62.3351 104.677C62.6266 104.328 62.8228 103.909 62.9049 103.462C62.987 103.014 62.9522 102.553 62.8037 102.123C62.2309 101.071 61.5508 100.081 60.7743 99.1696C60.605 98.9556 60.4351 98.7417 60.269 98.527C57.8327 95.3849 55.3942 92.2456 52.9535 89.1092C50.1093 85.4521 47.2684 81.7935 44.4309 78.1333C44.1971 77.8079 43.9911 77.4634 43.8152 77.1034L43.6787 76.8475C45.246 76.925 46.7889 77.0031 48.3072 77.0818C52.0628 77.2735 55.6097 77.4547 59.2064 77.5925C66.8481 77.8839 78.0118 78.1681 88.8072 78.4418C98.1003 78.678 106.878 78.9012 113.325 79.1237C114.588 79.1551 115.851 79.0657 117.097 78.8566C119.001 78.554 119.966 77.5748 119.965 75.9438C119.961 74.1303 118.883 73.0283 116.929 72.8472Z" fill="black"/>
<path d="M3.49703 54.1849C-3.29738 80.8893 2.65234 104.447 21.1932 124.216C21.6756 124.727 22.1679 125.237 22.6595 125.73C32.6194 135.689 45.0249 141.838 54.8542 146.118C59.0731 147.96 80.7211 150.197 86.5776 149.325C121.385 144.128 144.291 124.495 152.269 91.6507C153.793 85.217 154.551 78.6259 154.53 72.0144C154.566 56.4395 148.009 38.3324 134.485 24.7712C133.093 23.62 131.705 22.4274 130.364 21.2722C127.454 18.7703 124.446 16.181 121.3 13.9717C97.2641 -2.94471 72.2904 -3.03987 47.0759 5.93096C24.2471 14.0453 9.58587 30.2837 3.49703 54.1849ZM47.1737 13.9245C69.2975 4.73049 91.4955 3.10802 113.146 16.878C117.105 19.3983 127.658 27.9281 129.32 29.2093L129.426 29.2882L129.515 29.3859C137.961 38.3429 147.633 54.7205 147.419 71.5562C147.349 78.7552 146.374 85.9168 144.518 92.8728C139.019 112.862 125.871 127.43 104.323 137.394C82.4177 147.882 51.0021 137.279 42.6437 131.761C33.4051 125.445 25.3216 117.587 18.7464 108.531C8.43401 93.9308 6.11973 72.9438 11.6612 53.7584C14.2545 44.9 18.7866 36.7296 24.929 29.8399C31.0713 22.9501 38.6699 17.5136 47.1737 13.9245Z" fill="black"/>
</svg>

<svg xmlns="http://www.w3.org/2000/svg" width="155" height="150" fill="none" viewBox="0 0 155 150"><path fill="#000" d="M116.929 72.847q-.81-.075-1.62-.156c-2.217-.217-4.51-.441-6.774-.47-9.037-.118-21.829-.21-34.2-.298a6916 6916 0 0 1-25.567-.207 12 12 0 0 1-1.506-.151l-.338-.048.435-.473c.491-.533.899-.976 1.324-1.401a82.7 82.7 0 0 0 14.849-20.74l.122-.234a9.6 9.6 0 0 0 .893-2.1 2.9 2.9 0 0 0-.087-1.302 6 6 0 0 1-.099-.505l-.046-.346-.342.066q-.3.053-.603.074a2.5 2.5 0 0 0-1.45.426 9.4 9.4 0 0 0-1.27 1.478q-.43.606-.936 1.15-4.14 4.234-8.297 8.451-5.34 5.427-10.663 10.875a33 33 0 0 0-4.258 5c-1.783 2.769-1.51 5.071.906 7.7a360 360 0 0 1 7.435 8.357q2.927 3.385 5.825 6.796 3.15 3.694 6.325 7.372a13 13 0 0 0 2.814 2.56c.403.217.855.324 1.313.312.436.028.869-.098 1.221-.356a2.64 2.64 0 0 0 .469-2.554 17.3 17.3 0 0 0-2.03-2.953q-.255-.32-.505-.643a6800 6800 0 0 0-7.315-9.418 8949 8949 0 0 1-8.523-10.976 7 7 0 0 1-.616-1.03l-.136-.255q2.35.115 4.628.234c3.756.192 7.303.373 10.9.51 7.641.292 18.805.576 29.6.85 9.293.236 18.071.46 24.518.682a20 20 0 0 0 3.772-.267c1.904-.303 2.869-1.282 2.868-2.913-.004-1.814-1.082-2.916-3.036-3.097"/><path fill="#000" d="M3.497 54.185c-6.794 26.704-.845 50.262 17.696 70.031.483.511.975 1.021 1.467 1.514 9.96 9.959 22.365 16.108 32.194 20.388 4.22 1.842 25.867 4.079 31.724 3.207 34.807-5.197 57.713-24.83 65.691-57.674a84 84 0 0 0 2.261-19.637c.036-15.574-6.521-33.682-20.045-47.243a270 270 0 0 1-4.121-3.499c-2.91-2.502-5.918-5.091-9.064-7.3C97.264-2.945 72.29-3.04 47.076 5.93 24.247 14.045 9.586 30.284 3.497 54.185m43.677-40.26c22.124-9.195 44.322-10.817 65.972 2.953 3.959 2.52 14.512 11.05 16.174 12.331l.106.08.089.097c8.446 8.957 18.118 25.335 17.904 42.17a86 86 0 0 1-2.901 21.317c-5.499 19.989-18.647 34.557-40.195 44.521-21.905 10.488-53.32-.115-61.68-5.633a97.6 97.6 0 0 1-23.897-23.23C8.434 93.931 6.12 72.944 11.661 53.758a62.2 62.2 0 0 1 35.513-39.833"/></svg>
